X:656
M:C|
L:1/8
K:F
d|~c2 df cdAB|cfAB caAB|~c2 df cdAc|~BGAF GG,G,d|~cfef dfcf|
cfef afef|dbca BgAf|~BGAF GG,G,||

